src/web/assets/elements/dist/img/calendar-event.svg

<svg xmlns="http://www.w3.org/2000/svg" width="82" height="82" viewBox="0 0 82 82"><defs><linearGradient id="calendar-gradient" gradientUnits="userSpaceOnUse" x1="12.009" y1="69.991" x2="69.991" y2="12.009"><stop offset="0" stop-color="#0056FF"/><stop offset="0" stop-color="#006AFF"/><stop offset="1" stop-color="#00CAFF"/></linearGradient></defs><g id="Calendar"><path d="M41 82C18.356 82 0 63.644 0 41S18.356 0 41 0s41 18.356 41 41-18.356 41-41 41z" fill="url(#calendar-gradient)"/><path d="M33.021 16.373c8.355-2.233 4.721-1.263 10.901-2.909 9.262-2.427 11.229 4.816 11.899 7.175.397 1.438.782 2.88 1.169 4.32l-1.587 5.919c-.864-3.183-1.698-6.374-2.62-9.542-1.395-4.655-3.293-6.002-8.328-4.826-4.828 1.301-19.072 5.094-20.901 5.607-2.887.824-6.024 2.4-4.549 8.137 1.464 5.475 5.628 21.015 8.07 30.124 1.725 6.634 5.422 5.777 8.326 5.161 2.551-.662 17.72-4.727 20.954-5.627 4.96-1.379 5.68-3.994 4.507-8.528l-.382-1.44 1.602-5.98 1.775 6.641c2.355 8.805-2.766 11.079-6.803 12.352-2.187.592-12.649 3.394-20.668 5.541-9.405 2.577-11.559-4.742-12.252-7.284-.693-2.54-6.492-24.209-8.067-30.123-2.5-9.205 4.549-11.332 6.644-11.933 3.431-.947 6.872-1.863 10.31-2.785z" fill="#FFF"/><path d="M64.355 16.745c1.468.358 2.39 1.631 2.03 2.978-.36 1.348-8.179 30.211-8.179 30.211a1392.178 1392.178 0 00-3.769 5.162c-.217.301-.619.197-.645-.201l-.875-6.394S60.73 19.646 61.1 18.292c.369-1.354 1.787-1.903 3.255-1.547z" fill="#FF8300" id="Pencil"/><path d="M18.061 30.54L54 20.915l.491 2.554L18.721 33zm5.857-13.17l1.459 5.444c.159.595-.242 1.22-.898 1.395-.654.175-1.314-.166-1.473-.76l-1.459-5.444c-.159-.594.242-1.219.897-1.395.655-.175 1.315.165 1.474.76zm20.228-5.42l1.459 5.443c.159.595-.242 1.22-.898 1.396-.654.175-1.313-.165-1.474-.76l-1.458-5.443c-.159-.596.242-1.221.897-1.396.655-.176 1.315.164 1.474.76zM36.37 49.578l-1.825.494q.331 1.682 1.154 2.827.823 1.144 1.999 1.759 1.176.614 2.619.72 1.443.107 3.007-.316 1.39-.376 2.558-1.112 1.169-.736 1.913-1.776.744-1.041.999-2.338.255-1.296-.153-2.802-.54-1.998-1.991-3.051-1.45-1.052-3.535-.83l-.015-.058q1.541-.852 2.095-2.308.554-1.455.107-3.105-.368-1.362-1.166-2.187-.799-.825-1.85-1.208-1.052-.384-2.264-.382-1.211.001-2.399.323-1.477.399-2.527 1.227-1.05.828-1.636 1.935-.586 1.107-.706 2.444-.12 1.338.272 2.786l1.824-.494q-.334-1.121-.299-2.141.034-1.019.444-1.861.409-.841 1.176-1.452.767-.612 1.897-.917.926-.251 1.781-.25.855.002 1.593.315.737.314 1.277.929.539.615.814 1.629.258.956.07 1.752-.188.797-.661 1.407-.472.609-1.151 1.026-.68.417-1.375.606l-1.535.415.415 1.535 1.535-.416q1.014-.274 1.968-.252.953.021 1.764.377.811.355 1.403 1.05.592.694.89 1.795.29 1.071.083 2.028-.207.958-.774 1.733-.568.775-1.416 1.315-.848.541-1.862.815-1.216.329-2.292.201-1.076-.129-1.915-.647-.84-.519-1.44-1.414-.599-.894-.87-2.126z" fill="#FFF"/></g></svg>

<?xml version="1.0" encoding="UTF-8"?>
<!DOCTYPE svg PUBLIC "-//W3C//DTD SVG 1.1//EN" "http://www.w3.org/Graphics/SVG/1.1/DTD/svg11.dtd">
<svg version="1.1" xmlns="http://www.w3.org/2000/svg" xmlns:xlink="http://www.w3.org/1999/xlink" x="0" y="0" width="82" height="82" viewBox="0, 0, 82, 82">
  <defs>
    <linearGradient id="calendar-gradient" gradientUnits="userSpaceOnUse" x1="12.009" y1="69.991" x2="69.991" y2="12.009">
      <stop offset="0" stop-color="#0056FF"/>
      <stop offset="0" stop-color="#006AFF"/>
      <stop offset="1" stop-color="#00CAFF"/>
    </linearGradient>
  </defs>
  <g id="Calendar">
    <path d="M41,82 C18.356,82 0,63.644 0,41 C0,18.356 18.356,0 41,0 C63.644,0 82,18.356 82,41 C82,63.644 63.644,82 41,82 z" fill="url(#calendar-gradient)"/>
    <g>
      <path d="M33.021,16.373 C41.376,14.14 37.742,15.11 43.922,13.464 C53.184,11.037 55.151,18.28 55.821,20.639 C56.218,22.077 56.603,23.519 56.99,24.959 L55.403,30.878 C54.539,27.695 53.705,24.504 52.783,21.336 C51.388,16.681 49.49,15.334 44.455,16.51 C39.627,17.811 25.383,21.604 23.554,22.117 C20.667,22.941 17.53,24.517 19.005,30.254 C20.469,35.729 24.633,51.269 27.075,60.378 C28.8,67.012 32.497,66.155 35.401,65.539 C37.952,64.877 53.121,60.812 56.355,59.912 C61.315,58.533 62.035,55.918 60.862,51.384 L60.48,49.944 L62.082,43.964 C62.674,46.178 63.266,48.391 63.857,50.605 C66.212,59.41 61.091,61.684 57.054,62.957 C54.867,63.549 44.405,66.351 36.386,68.498 C26.981,71.075 24.827,63.756 24.134,61.214 C23.441,58.674 17.642,37.005 16.067,31.091 C13.567,21.886 20.616,19.759 22.711,19.158 C26.142,18.211 29.583,17.295 33.021,16.373 z" fill="#FFFFFF"/>
      <path d="M64.355,16.745 C65.823,17.103 66.745,18.376 66.385,19.723 C66.025,21.071 58.206,49.934 58.206,49.934 L58.206,49.934 C56.947,51.652 55.689,53.371 54.437,55.096 C54.22,55.397 53.818,55.293 53.792,54.895 L52.917,48.501 C52.917,48.501 60.73,19.646 61.1,18.292 C61.469,16.938 62.887,16.389 64.355,16.745 z" fill="#FF8300" id="Pencil"/>
      <path d="M18.061,30.54 L54,20.915 L54.491,23.469 L18.721,33 z" fill="#FFFFFF"/>
      <path d="M23.918,17.37 L25.377,22.814 C25.536,23.409 25.135,24.034 24.479,24.209 L24.479,24.209 C23.825,24.384 23.165,24.043 23.006,23.449 L21.547,18.005 C21.388,17.411 21.789,16.786 22.444,16.61 L22.444,16.61 C23.099,16.435 23.759,16.775 23.918,17.37 z" fill="#FFFFFF"/>
      <path d="M44.146,11.95 L45.605,17.393 C45.764,17.988 45.363,18.613 44.707,18.789 L44.707,18.789 C44.053,18.964 43.394,18.624 43.233,18.029 L41.775,12.586 C41.616,11.99 42.017,11.365 42.672,11.19 L42.672,11.19 C43.327,11.014 43.987,11.354 44.146,11.95 z" fill="#FFFFFF"/>
      <path d="M36.37,49.578 L34.545,50.072 Q34.876,51.754 35.699,52.899 Q36.522,54.043 37.698,54.658 Q38.874,55.272 40.317,55.378 Q41.76,55.485 43.324,55.062 Q44.714,54.686 45.882,53.95 Q47.051,53.214 47.795,52.174 Q48.539,51.133 48.794,49.836 Q49.049,48.54 48.641,47.034 Q48.101,45.036 46.65,43.983 Q45.2,42.931 43.115,43.153 L43.1,43.095 Q44.641,42.243 45.195,40.787 Q45.749,39.332 45.302,37.682 Q44.934,36.32 44.136,35.495 Q43.337,34.67 42.286,34.287 Q41.234,33.903 40.022,33.905 Q38.811,33.906 37.623,34.228 Q36.146,34.627 35.096,35.455 Q34.046,36.283 33.46,37.39 Q32.874,38.497 32.754,39.834 Q32.634,41.172 33.026,42.62 L34.85,42.126 Q34.516,41.005 34.551,39.985 Q34.585,38.966 34.995,38.124 Q35.404,37.283 36.171,36.672 Q36.938,36.06 38.068,35.755 Q38.994,35.504 39.849,35.505 Q40.704,35.507 41.442,35.82 Q42.179,36.134 42.719,36.749 Q43.258,37.364 43.533,38.378 Q43.791,39.334 43.603,40.13 Q43.415,40.927 42.942,41.537 Q42.47,42.146 41.791,42.563 Q41.111,42.98 40.416,43.169 L38.881,43.584 L39.296,45.119 L40.831,44.703 Q41.845,44.429 42.799,44.451 Q43.752,44.472 44.563,44.828 Q45.374,45.183 45.966,45.878 Q46.558,46.572 46.856,47.673 Q47.146,48.744 46.939,49.701 Q46.732,50.659 46.165,51.434 Q45.597,52.209 44.749,52.749 Q43.901,53.29 42.887,53.564 Q41.671,53.893 40.595,53.765 Q39.519,53.636 38.68,53.118 Q37.84,52.599 37.24,51.704 Q36.641,50.81 36.37,49.578 z" fill="#FFFFFF"/>
    </g>
  </g>
</svg>
